X: 41350
T: Turnpike Gate, The
R: reel
M: 4/4
K: Gmajor
GEDE G2GB|AD F/E/D ADFD|GEDE GA B/c/d|egdB AcBA|
GEDE GABG|AD F/E/D ADFD|GEDE GABd|eBdB GABd||
g3b a3b|gabg agef|g3b a3b|gabg agef|
g2gb a2ab|gabg aged|Beef ed B/c/d|gedB AcBA||

